cms/static/cms/icons/image.svg

<?xml version="1.0" encoding="UTF-8"?>
<svg width="24px" height="24px" viewBox="0 0 24 24" version="1.1" xmlns="http://www.w3.org/2000/svg" xmlns:xlink="http://www.w3.org/1999/xlink">
    <!-- Generator: Sketch 48.2 (47327) - http://www.bohemiancoding.com/sketch -->
    <title>Resources/icons/image</title>
    <desc>Created with Sketch.</desc>
    <defs>
        <path d="M20,12.5857864 L20,5 C20,4.44771525 19.5522847,4 19,4 L5,4 C4.44771525,4 4,4.44771525 4,5 L4,19 C4,19.4288091 4.26990055,19.7945795 4.64908837,19.9366981 L15.2928932,9.29289322 C15.6834175,8.90236893 16.3165825,8.90236893 16.7071068,9.29289322 L20,12.5857864 Z M20,15.4142136 L16,11.4142136 L7.41421356,20 L19,20 C19.5522847,20 20,19.5522847 20,19 L20,15.4142136 Z M5,2 L19,2 C20.6568542,2 22,3.34314575 22,5 L22,19 C22,20.6568542 20.6568542,22 19,22 L5,22 C3.34314575,22 2,20.6568542 2,19 L2,5 C2,3.34314575 3.34314575,2 5,2 Z M8.5,11 C7.11928813,11 6,9.88071187 6,8.5 C6,7.11928813 7.11928813,6 8.5,6 C9.88071187,6 11,7.11928813 11,8.5 C11,9.88071187 9.88071187,11 8.5,11 Z M8.5,9 C8.77614237,9 9,8.77614237 9,8.5 C9,8.22385763 8.77614237,8 8.5,8 C8.22385763,8 8,8.22385763 8,8.5 C8,8.77614237 8.22385763,9 8.5,9 Z" id="path-1"></path>
    </defs>
    <g id="Symbols" stroke="none" stroke-width="1" fill="none" fill-rule="evenodd">
        <g id="Resources/icons/image">
            <mask id="mask-2" fill="white">
                <use xlink:href="#path-1"></use>
            </mask>
            <use id="Combined-Shape" fill="#000000" fill-rule="nonzero" xlink:href="#path-1"></use>
            <g id="Resources/Colour/black" mask="url(#mask-2)" fill="#000000">
                <rect id="Rectangle" x="0" y="0" width="24" height="24"></rect>
            </g>
        </g>
    </g>
</svg>

<?xml version="1.0" encoding="utf-8"?>
<!-- Generator: Adobe Illustrator 19.1.0, SVG Export Plug-In . SVG Version: 6.00 Build 0)  -->
<svg version="1.1" id="Layer_1" xmlns="http://www.w3.org/2000/svg" xmlns:xlink="http://www.w3.org/1999/xlink" x="0px" y="0px"
	 viewBox="0 0 24 24" enable-background="new 0 0 24 24" xml:space="preserve">
<g>
	<path id="path-1" fill="#010101" d="M20,12.6V5c0-0.6-0.4-1-1-1H5C4.4,4,4,4.4,4,5v14c0,0.4,0.3,0.8,0.6,0.9L15.3,9.3
		c0.4-0.4,1-0.4,1.4,0L20,12.6z M20,15.4l-4-4L7.4,20H19c0.6,0,1-0.4,1-1V15.4z M5,2h14c1.7,0,3,1.3,3,3v14c0,1.7-1.3,3-3,3H5
		c-1.7,0-3-1.3-3-3V5C2,3.3,3.3,2,5,2z M8.5,11C7.1,11,6,9.9,6,8.5S7.1,6,8.5,6S11,7.1,11,8.5S9.9,11,8.5,11z M8.5,9
		C8.8,9,9,8.8,9,8.5S8.8,8,8.5,8S8,8.2,8,8.5S8.2,9,8.5,9z"/>
</g>
</svg>
